;FLAVOR:RepRap
;TIME:354
;Filament used: 0.372489m
;Layer height: 0.2
;Generated with Cura_SteamEngine 0.0.0-master
M104 S200
M109 S200
;Sliced at: Tue 22-01-2019 16:04:35 
 ;Basic settings: Layer height: 0.2 Walls: 1.2 Fill: {fill_density} 
 ;Print time: 00:05:55 
 ;Filament used: [0.37]m [1.110965830078125]g 
 ;Filament cost: [0] 
 ;M190 S60 ;Uncomment to add your own bed temperature line 
 ;M109 S200 ;Uncomment to add your own temperature line 
 G21        ;metric values 
 G90        ;absolute positioning 
 M82        ;set extruder to absolute mode 
 M107       ;start with the fan off 
 G28 X0 Y0  ;move X/Y to min endstops 
 G28 Z0     ;move Z to min endstops 
 G1 Z15.0 F3000 ;move the platform down 15mm 
 G92 E0                  ;zero the extruded length 
 G1 F3000 E3              ;extrude 3mm of feed stock 
 G92 E0                  ;zero the extruded length again 
 G1 F3000 
 ;Put printing message on LCD screen 
 M117 Printing...
;LAYER_COUNT:35
;LAYER:0
M107
G0 F3600 X9.991 Y-9.49 Z0.299
;TYPE:SKIRT
G1 F1800 X10.555 Y-9.45 E0.02821
G1 X11.108 Y-9.331 E0.05643
G1 X11.638 Y-9.135 E0.08462
G1 X12.136 Y-8.867 E0.11284
G1 X12.59 Y-8.53 E0.14104
G1 X12.993 Y-8.134 E0.16923
G1 X13.336 Y-7.684 E0.19746
G1 X13.611 Y-7.191 E0.22562
G1 X13.815 Y-6.663 E0.25386
G1 X13.942 Y-6.112 E0.28207
G1 X13.991 Y-5.49 E0.3132
G1 X13.991 Y5.491 E0.86105
G1 X13.951 Y6.055 E0.88926
G1 X13.832 Y6.608 E0.91748
G1 X13.636 Y7.138 E0.94567
G1 X13.368 Y7.635 E0.97384
G1 X13.032 Y8.09 E1.00206
G1 X12.635 Y8.493 E1.03028
G1 X12.185 Y8.835 E1.05848
G1 X11.692 Y9.111 E1.08667
G1 X11.164 Y9.315 E1.11491
G1 X10.614 Y9.442 E1.14307
G1 X9.991 Y9.491 E1.17425
G1 X-9.991 Y9.491 E2.17115
G1 X-10.555 Y9.451 E2.19936
G1 X-11.108 Y9.332 E2.22758
G1 X-11.638 Y9.136 E2.25577
G1 X-12.135 Y8.868 E2.28394
G1 X-12.59 Y8.532 E2.31216
G1 X-12.993 Y8.135 E2.34039
G1 X-13.335 Y7.685 E2.36858
G1 X-13.611 Y7.192 E2.39677
G1 X-13.815 Y6.664 E2.42501
G1 X-13.942 Y6.114 E2.45317
G1 X-13.991 Y5.491 E2.48435
G1 X-13.991 Y-5.491 E3.03225
G1 X-13.951 Y-6.055 E3.06045
G1 X-13.832 Y-6.608 E3.08868
G1 X-13.636 Y-7.138 E3.11687
G1 X-13.368 Y-7.635 E3.14504
G1 X-13.032 Y-8.09 E3.17326
G1 X-12.635 Y-8.493 E3.20148
G1 X-12.185 Y-8.835 E3.22968
G1 X-11.692 Y-9.111 E3.25787
G1 X-11.164 Y-9.315 E3.28611
G1 X-10.614 Y-9.442 E3.31427
G1 X-9.991 Y-9.491 E3.34545
G1 X9.991 Y-9.49 E4.34235
G0 F3600 X9.991 Y-9.09
G1 F1800 X10.526 Y-9.05 E4.36912
G1 X11.049 Y-8.931 E4.39588
G1 X11.548 Y-8.736 E4.42261
G1 X12.013 Y-8.468 E4.44938
G1 X12.433 Y-8.135 E4.47612
G1 X12.799 Y-7.743 E4.50288
G1 X13.103 Y-7.301 E4.52964
G1 X13.337 Y-6.818 E4.55642
G1 X13.497 Y-6.306 E4.58318
G1 X13.58 Y-5.777 E4.60989
G1 X13.591 Y-5.49 E4.62422
G1 X13.591 Y5.491 E5.17207
G1 X13.551 Y6.026 E5.19883
G1 X13.432 Y6.549 E5.22559
G1 X13.237 Y7.048 E5.25232
G1 X12.969 Y7.513 E5.2791
G1 X12.636 Y7.933 E5.30584
G1 X12.244 Y8.299 E5.3326
G1 X11.802 Y8.602 E5.35933
G1 X11.319 Y8.837 E5.38613
G1 X10.808 Y8.997 E5.41284
G1 X10.278 Y9.08 E5.43961
G1 X9.991 Y9.091 E5.45394
G1 X-9.991 Y9.091 E6.45084
G1 X-10.526 Y9.051 E6.47761
G1 X-11.049 Y8.932 E6.50437
G1 X-11.548 Y8.737 E6.5311
G1 X-12.013 Y8.469 E6.55787
G1 X-12.433 Y8.136 E6.58461
G1 X-12.799 Y7.744 E6.61137
G1 X-13.102 Y7.302 E6.6381
G1 X-13.337 Y6.819 E6.6649
G1 X-13.497 Y6.308 E6.69162
G1 X-13.58 Y5.778 E6.71838
G1 X-13.591 Y5.491 E6.73271
G1 X-13.591 Y-5.491 E7.2806
G1 X-13.551 Y-6.026 E7.30737
G1 X-13.432 Y-6.549 E7.33413
G1 X-13.237 Y-7.048 E7.36086
G1 X-12.969 Y-7.513 E7.38763
G1 X-12.636 Y-7.933 E7.41437
G1 X-12.244 Y-8.299 E7.44113
G1 X-11.802 Y-8.602 E7.46787
G1 X-11.319 Y-8.837 E7.49466
G1 X-10.808 Y-8.997 E7.52138
G1 X-10.278 Y-9.08 E7.54814
G1 X-9.991 Y-9.091 E7.56247
G1 X9.991 Y-9.09 E8.55938
G0 F3600 X9.991 Y-8.69
G1 F1800 X10.495 Y-8.65 E8.5846
G1 X10.987 Y-8.531 E8.60985
G1 X11.453 Y-8.336 E8.63506
G1 X11.883 Y-8.071 E8.66026
G1 X12.266 Y-7.74 E8.68551
G1 X12.592 Y-7.354 E8.71072
G1 X12.853 Y-6.921 E8.73594
G1 X13.043 Y-6.452 E8.76119
G1 X13.156 Y-5.96 E8.78637
G1 X13.191 Y-5.49 E8.80989
G1 X13.191 Y5.491 E9.35773
G1 X13.151 Y5.995 E9.38295
G1 X13.032 Y6.486 E9.40816
G1 X12.838 Y6.953 E9.43339
G1 X12.572 Y7.383 E9.45861
G1 X12.242 Y7.766 E9.48384
G1 X11.855 Y8.092 E9.50908
G1 X11.422 Y8.353 E9.5343
G1 X10.954 Y8.543 E9.5595
G1 X10.461 Y8.656 E9.58474
G1 X9.991 Y8.691 E9.60825
G1 X-9.991 Y8.691 E10.60516
G1 X-10.495 Y8.651 E10.63038
G1 X-10.986 Y8.532 E10.65559
G1 X-11.453 Y8.338 E10.68082
G1 X-11.883 Y8.072 E10.70604
G1 X-12.266 Y7.742 E10.73126
G1 X-12.592 Y7.355 E10.75651
G1 X-12.853 Y6.922 E10.78173
G1 X-13.043 Y6.454 E10.80693
G1 X-13.156 Y5.961 E10.83216
G1 X-13.191 Y5.491 E10.85568
G1 X-13.191 Y-5.491 E11.40357
G1 X-13.151 Y-5.995 E11.4288
G1 X-13.032 Y-6.486 E11.454
G1 X-12.838 Y-6.953 E11.47923
G1 X-12.572 Y-7.383 E11.50446
G1 X-12.242 Y-7.766 E11.52968
G1 X-11.855 Y-8.092 E11.55492
G1 X-11.422 Y-8.353 E11.58015
G1 X-10.954 Y-8.543 E11.60535
G1 X-10.461 Y-8.656 E11.63058
G1 X-9.991 Y-8.691 E11.65409
G1 X9.991 Y-8.69 E12.651
G1 F3600 E4.651
G0 F3600 X9.386 Y-6.165
G0 X9.386 Y-4.886
G0 X9 Y-4.5
;TYPE:WALL-INNER
G1 F3600 E12.651
G1 F1800 X9 Y4.5 E13.10001
G1 X-9 Y4.5 E13.99803
G1 X-9 Y-4.5 E14.44705
G1 X9 Y-4.5 E15.34507
G0 F3600 X9.4 Y-4.9
G1 F1800 X9.4 Y4.9 E15.83399
G1 X-9.4 Y4.9 E16.77193
G1 X-9.4 Y-4.9 E17.26085
G1 X9.4 Y-4.9 E18.19879
G0 F3600 X9.8 Y-5.3
;TYPE:WALL-OUTER
G1 F1800 X9.8 Y5.3 E18.72763
G1 X-9.8 Y5.3 E19.70547
G1 X-9.8 Y-5.3 E20.23431
G1 X9.8 Y-5.3 E21.21216
G0 F3600 X9.8 Y-5.1
G0 X9.33 Y-4.83
G0 X8.8 Y-4.3
G0 X8.754 Y-4.255
G1 F1800 X8.471 Y-3.973 E21.24116
;TYPE:SKIN
G1 X8.889 Y-3.556
G0 F3600 X8.819 Y-3.06
G1 F1800 X7.558 Y-4.32 E21.33009
G1 X7.488 Y-4.39
G0 F3600 X6.993 Y-4.32
G1 F1800 X8.819 Y-2.494 E21.45893
G1 X8.889 Y-2.424
G0 F3600 X8.819 Y-1.928
G1 F1800 X6.427 Y-4.32 E21.6277
G1 X6.357 Y-4.39
G0 F3600 X5.861 Y-4.32
G1 F1800 X8.819 Y-1.363 E21.83636
G1 X8.889 Y-1.293
G0 F3600 X8.819 Y-0.797
G1 F1800 X5.296 Y-4.32 E22.08493
G1 X5.226 Y-4.39
G0 F3600 X4.73 Y-4.32
G1 F1800 X8.819 Y-0.231 E22.37343
G1 X8.889 Y-0.161
G0 F3600 X8.819 Y0.333
G1 F1800 X4.164 Y-4.32 E22.7018
G1 X4.094 Y-4.39
G0 F3600 X3.599 Y-4.32
G1 F1800 X8.819 Y0.899 E23.07006
G1 X8.889 Y0.969
G0 F3600 X8.819 Y1.465
G1 F1800 X3.033 Y-4.32 E23.47826
G1 X2.963 Y-4.39
G0 F3600 X2.467 Y-4.32
G1 F1800 X8.819 Y2.03 E23.92636
G1 X8.889 Y2.1
G0 F3600 X8.819 Y2.596
G1 F1800 X1.902 Y-4.32 E24.41435
G1 X1.832 Y-4.39
G0 F3600 X1.336 Y-4.32
G1 F1800 X8.819 Y3.162 E24.94228
G1 X8.889 Y3.232
G0 F3600 X8.819 Y3.727
G1 F1800 X0.77 Y-4.32 E25.51011
G1 X0.7 Y-4.39
G0 F3600 X0.205 Y-4.32
G1 F1800 X8.819 Y4.293 E26.11784
G1 X8.889 Y4.363
G0 F3600 X8.28 Y4.32
G1 F1800 X-0.36 Y-4.32 E26.72744
G1 X-0.43 Y-4.39
G0 F3600 X-0.926 Y-4.32
G1 F1800 X7.714 Y4.32 E27.33704
G1 X7.784 Y4.39
G0 F3600 X7.148 Y4.32
G1 F1800 X-1.491 Y-4.32 E27.9466
G1 X-1.561 Y-4.39
G0 F3600 X-2.057 Y-4.32
G1 F1800 X6.583 Y4.32 E28.5562
G1 X6.653 Y4.39
G0 F3600 X6.017 Y4.32
G1 F1800 X-2.623 Y-4.32 E29.1658
G1 X-2.693 Y-4.39
G0 F3600 X-3.189 Y-4.32
G1 F1800 X5.451 Y4.32 E29.7754
G1 X5.521 Y4.39
G0 F3600 X4.886 Y4.32
G1 F1800 X-3.754 Y-4.32 E30.385
G1 X-3.824 Y-4.39
G0 F3600 X-4.32 Y-4.32
G1 F1800 X4.32 Y4.32 E30.9946
G1 X4.39 Y4.39
G0 F3600 X3.754 Y4.32
G1 F1800 X-4.886 Y-4.32 E31.6042
G1 X-4.956 Y-4.39
G0 F3600 X-5.451 Y-4.32
G1 F1800 X3.189 Y4.32 E32.21379
G1 X3.259 Y4.39
G0 F3600 X2.623 Y4.32
G1 F1800 X-6.017 Y-4.32 E32.82339
G1 X-6.087 Y-4.39
G0 F3600 X-6.583 Y-4.32
G1 F1800 X2.057 Y4.32 E33.43299
G1 X2.127 Y4.39
G0 F3600 X1.491 Y4.32
G1 F1800 X-7.148 Y-4.32 E34.04255
G1 X-7.218 Y-4.39
G0 F3600 X-7.714 Y-4.32
G1 F1800 X0.926 Y4.32 E34.65215
G1 X0.996 Y4.39
G0 F3600 X0.36 Y4.32
G1 F1800 X-8.28 Y-4.32 E35.26175
G1 X-8.35 Y-4.39
G0 F3600 X-8.819 Y-4.293
G1 F1800 X-0.205 Y4.32 E35.86948
G1 X-0.135 Y4.39
G0 F3600 X-0.77 Y4.32
G1 F1800 X-8.819 Y-3.727 E36.43731
G1 X-8.889 Y-3.797
G0 F3600 X-8.819 Y-3.162
G1 F1800 X-1.336 Y4.32 E36.96524
G1 X-1.266 Y4.39
G0 F3600 X-1.902 Y4.32
G1 F1800 X-8.819 Y-2.596 E37.45324
G1 X-8.889 Y-2.666
G0 F3600 X-8.819 Y-2.03
G1 F1800 X-2.467 Y4.32 E37.90134
G1 X-2.397 Y4.39
G0 F3600 X-3.033 Y4.32
G1 F1800 X-8.819 Y-1.465 E38.30953
G1 X-8.889 Y-1.535
G0 F3600 X-8.819 Y-0.899
G1 F1800 X-3.599 Y4.32 E38.6778
G1 X-3.529 Y4.39
G0 F3600 X-4.164 Y4.32
G1 F1800 X-8.819 Y-0.333 E39.00616
G1 X-8.889 Y-0.403
G0 F3600 X-8.819 Y0.231
G1 F1800 X-4.73 Y4.32 E39.29466
G1 X-4.66 Y4.39
G0 F3600 X-5.296 Y4.32
G1 F1800 X-8.819 Y0.797 E39.54323
G1 X-8.889 Y0.727
G0 F3600 X-8.819 Y1.363
G1 F1800 X-5.861 Y4.32 E39.7519
G1 X-5.791 Y4.39
G0 F3600 X-6.427 Y4.32
G1 F1800 X-8.819 Y1.928 E39.92067
G1 X-8.889 Y1.858
G0 F3600 X-8.819 Y2.494
G1 F1800 X-6.993 Y4.32 E40.0495
G1 X-6.923 Y4.39
G0 F3600 X-7.558 Y4.32
G1 F1800 X-8.819 Y3.06 E40.13844
G1 X-8.889 Y2.99
G0 F3600 X-8.819 Y3.626
G1 F1800 X-8.124 Y4.32 E40.18744
G1 X-8.054 Y4.39
G0 F3600 X-8.69 Y4.32
G1 F1800 X-8.819 Y4.191 E40.19654
G0 F3600 X9 Y4.5
;TIME_ELAPSED:28.923974
;LAYER:1
M106 S255
G0 F5400 X9 Y4.5 Z0.499
;TYPE:WALL-INNER
G1 F2700 X-9 Y4.5 E40.79522
G1 X-9 Y-4.5 E41.09456
G1 X9 Y-4.5 E41.69324
G1 X9 Y4.5 E41.99259
G0 F5400 X9.4 Y4.9
G1 F2700 X-9.4 Y4.9 E42.61788
G1 X-9.4 Y-4.9 E42.94383
G1 X9.4 Y-4.9 E43.56912
G1 X9.4 Y4.9 E43.89506
G0 F5400 X9.8 Y5.3
;TYPE:WALL-OUTER
G1 F1800 X-9.8 Y5.3 E44.54696
G1 X-9.8 Y-5.3 E44.89952
G1 X9.8 Y-5.3 E45.55142
G1 X9.8 Y5.3 E45.90398
G0 F5400 X9.6 Y5.3
G0 X9.33 Y4.83
G0 X8.8 Y4.3
G0 X8.754 Y4.255
G1 F1800 X8.471 Y3.973 E45.92331
;TYPE:SKIN
G1 X8.889 Y3.556
G0 F5400 X8.819 Y3.06
G1 F1800 X7.558 Y4.32 E45.9826
G1 X7.488 Y4.39
G0 F5400 X6.993 Y4.32
G1 F1800 X8.819 Y2.494 E46.06849
G1 X8.889 Y2.424
G0 F5400 X8.819 Y1.928
G1 F1800 X6.427 Y4.32 E46.181
G1 X6.357 Y4.39
G0 F5400 X5.861 Y4.32
G1 F1800 X8.819 Y1.363 E46.32011
G1 X8.889 Y1.293
G0 F5400 X8.819 Y0.797
G1 F1800 X5.296 Y4.32 E46.48583
G1 X5.226 Y4.39
G0 F5400 X4.73 Y4.32
G1 F1800 X8.819 Y0.231 E46.67816
G1 X8.889 Y0.161
G0 F5400 X8.819 Y-0.333
G1 F1800 X4.164 Y4.32 E46.89707
G1 X4.094 Y4.39
G0 F5400 X3.599 Y4.32
G1 F1800 X8.819 Y-0.899 E47.14258
G1 X8.889 Y-0.969
G0 F5400 X8.819 Y-1.465
G1 F1800 X3.033 Y4.32 E47.41471
G1 X2.963 Y4.39
G0 F5400 X2.467 Y4.32
G1 F1800 X8.819 Y-2.03 E47.71344
G1 X8.889 Y-2.1
G0 F5400 X8.819 Y-2.596
G1 F1800 X1.902 Y4.32 E48.03877
G1 X1.832 Y4.39
G0 F5400 X1.336 Y4.32
G1 F1800 X8.819 Y-3.162 E48.39073
G1 X8.889 Y-3.232
G0 F5400 X8.819 Y-3.727
G1 F1800 X0.77 Y4.32 E48.76928
G1 X0.7 Y4.39
G0 F5400 X0.205 Y4.32
G1 F1800 X8.819 Y-4.293 E49.17443
G1 X8.889 Y-4.363
G0 F5400 X8.28 Y-4.32
G1 F1800 X-0.36 Y4.32 E49.58083
G1 X-0.43 Y4.39
G0 F5400 X-0.926 Y4.32
G1 F1800 X7.714 Y-4.32 E49.98723
G1 X7.784 Y-4.39
G0 F5400 X7.148 Y-4.32
G1 F1800 X-1.491 Y4.32 E50.39361
G1 X-1.561 Y4.39
G0 F5400 X-2.057 Y4.32
G1 F1800 X6.583 Y-4.32 E50.80001
G1 X6.653 Y-4.39
G0 F5400 X6.017 Y-4.32
G1 F1800 X-2.623 Y4.32 E51.20641
G1 X-2.693 Y4.39
G0 F5400 X-3.189 Y4.32
G1 F1800 X5.451 Y-4.32 E51.6128
G1 X5.521 Y-4.39
G0 F5400 X4.886 Y-4.32
G1 F1800 X-3.754 Y4.32 E52.0192
G1 X-3.824 Y4.39
G0 F5400 X-4.32 Y4.32
G1 F1800 X4.32 Y-4.32 E52.4256
G1 X4.39 Y-4.39
G0 F5400 X3.754 Y-4.32
G1 F1800 X-4.886 Y4.32 E52.832
G1 X-4.956 Y4.39
G0 F5400 X-5.451 Y4.32
G1 F1800 X3.189 Y-4.32 E53.2384
G1 X3.259 Y-4.39
G0 F5400 X2.623 Y-4.32
G1 F1800 X-6.017 Y4.32 E53.6448
G1 X-6.087 Y4.39
G0 F5400 X-6.583 Y4.32
G1 F1800 X2.057 Y-4.32 E54.0512
G1 X2.127 Y-4.39
G0 F5400 X1.491 Y-4.32
G1 F1800 X-7.148 Y4.32 E54.45757
G1 X-7.218 Y4.39
G0 F5400 X-7.714 Y4.32
G1 F1800 X0.926 Y-4.32 E54.86397
G1 X0.996 Y-4.39
G0 F5400 X0.36 Y-4.32
G1 F1800 X-8.28 Y4.32 E55.27037
G1 X-8.35 Y4.39
G0 F5400 X-8.819 Y4.293
G1 F1800 X-0.205 Y-4.32 E55.67553
G1 X-0.135 Y-4.39
G0 F5400 X-0.77 Y-4.32
G1 F1800 X-8.819 Y3.727 E56.05408
G1 X-8.889 Y3.797
G0 F5400 X-8.819 Y3.162
G1 F1800 X-1.336 Y-4.32 E56.40603
G1 X-1.266 Y-4.39
G0 F5400 X-1.902 Y-4.32
G1 F1800 X-8.819 Y2.596 E56.73136
G1 X-8.889 Y2.666
G0 F5400 X-8.819 Y2.03
G1 F1800 X-2.467 Y-4.32 E57.0301
G1 X-2.397 Y-4.39
G0 F5400 X-3.033 Y-4.32
G1 F1800 X-8.819 Y1.465 E57.30223
G1 X-8.889 Y1.535
G0 F5400 X-8.819 Y0.899
G1 F1800 X-3.599 Y-4.32 E57.54774
G1 X-3.529 Y-4.39
G0 F5400 X-4.164 Y-4.32
G1 F1800 X-8.819 Y0.333 E57.76665
G1 X-8.889 Y0.403
G0 F5400 X-8.819 Y-0.231
G1 F1800 X-4.73 Y-4.32 E57.95898
G1 X-4.66 Y-4.39
G0 F5400 X-5.296 Y-4.32
G1 F1800 X-8.819 Y-0.797 E58.12469
G1 X-8.889 Y-0.727
G0 F5400 X-8.819 Y-1.363
G1 F1800 X-5.861 Y-4.32 E58.2638
G1 X-5.791 Y-4.39
G0 F5400 X-6.427 Y-4.32
G1 F1800 X-8.819 Y-1.928 E58.37632
G1 X-8.889 Y-1.858
G0 F5400 X-8.819 Y-2.494
G1 F1800 X-6.993 Y-4.32 E58.46221
G1 X-6.923 Y-4.39
G0 F5400 X-7.558 Y-4.32
G1 F1800 X-8.819 Y-3.06 E58.5215
G1 X-8.889 Y-2.99
G0 F5400 X-8.819 Y-3.626
G1 F1800 X-8.124 Y-4.32 E58.55416
G1 X-8.054 Y-4.39
G0 F5400 X-8.69 Y-4.32
G1 F1800 X-8.819 Y-4.191 E58.56023
G0 F5400 X9 Y4.5
;TIME_ELAPSED:47.631694
;LAYER:2
G0 F7200 X9 Y4.5 Z0.699
;TYPE:WALL-INNER
G1 F3600 X-9 Y4.5 E59.15891
G1 X-9 Y-4.5 E59.45825
G1 X9 Y-4.5 E60.05694
G1 X9 Y4.5 E60.35628
G0 F7200 X9.4 Y4.9
G1 F3600 X-9.4 Y4.9 E60.98157
G1 X-9.4 Y-4.9 E61.30752
G1 X9.4 Y-4.9 E61.93281
G1 X9.4 Y4.9 E62.25876
G0 F7200 X9.8 Y5.3
;TYPE:WALL-OUTER
G1 F1800 X-9.8 Y5.3 E62.91066
G1 X-9.8 Y-5.3 E63.26321
G1 X9.8 Y-5.3 E63.91511
G1 X9.8 Y5.3 E64.26767
G0 F7200 X9.6 Y5.3
G0 X9.33 Y4.83
G0 X8.8 Y-4.3
G0 X8.754 Y-4.255
G1 F1800 X8.471 Y-3.973 E64.287
;TYPE:SKIN
G1 X8.889 Y-3.556
G0 F7200 X8.819 Y-3.06
G1 F1800 X7.558 Y-4.32 E64.34629
G1 X7.488 Y-4.39
G0 F7200 X6.993 Y-4.32
G1 F1800 X8.819 Y-2.494 E64.43218
G1 X8.889 Y-2.424
G0 F7200 X8.819 Y-1.928
G1 F1800 X6.427 Y-4.32 E64.5447
G1 X6.357 Y-4.39
G0 F7200 X5.861 Y-4.32
G1 F1800 X8.819 Y-1.363 E64.68381
G1 X8.889 Y-1.293
G0 F7200 X8.819 Y-0.797
G1 F1800 X5.296 Y-4.32 E64.84952
G1 X5.226 Y-4.39
G0 F7200 X4.73 Y-4.32
G1 F1800 X8.819 Y-0.231 E65.04185
G1 X8.889 Y-0.161
G0 F7200 X8.819 Y0.333
G1 F1800 X4.164 Y-4.32 E65.26076
G1 X4.094 Y-4.39
G0 F7200 X3.599 Y-4.32
G1 F1800 X8.819 Y0.899 E65.50627
G1 X8.889 Y0.969
G0 F7200 X8.819 Y1.465
G1 F1800 X3.033 Y-4.32 E65.7784
G1 X2.963 Y-4.39
G0 F7200 X2.467 Y-4.32
G1 F1800 X8.819 Y2.03 E66.07714
G1 X8.889 Y2.1
G0 F7200 X8.819 Y2.596
G1 F1800 X1.902 Y-4.32 E66.40247
G1 X1.832 Y-4.39
G0 F7200 X1.336 Y-4.32
G1 F1800 X8.819 Y3.162 E66.75442
G1 X8.889 Y3.232
G0 F7200 X8.819 Y3.727
G1 F1800 X0.77 Y-4.32 E67.13297
G1 X0.7 Y-4.39
G0 F7200 X0.205 Y-4.32
G1 F1800 X8.819 Y4.293 E67.53813
G1 X8.889 Y4.363
G0 F7200 X8.28 Y4.32
G1 F1800 X-0.36 Y-4.32 E67.94452
G1 X-0.43 Y-4.39
G0 F7200 X-0.926 Y-4.32
G1 F1800 X7.714 Y4.32 E68.35092
G1 X7.784 Y4.39
G0 F7200 X7.148 Y4.32
G1 F1800 X-1.491 Y-4.32 E68.7573
G1 X-1.561 Y-4.39
G0 F7200 X-2.057 Y-4.32
G1 F1800 X6.583 Y4.32 E69.1637
G1 X6.653 Y4.39
G0 F7200 X6.017 Y4.32
G1 F1800 X-2.623 Y-4.32 E69.5701
G1 X-2.693 Y-4.39
G0 F7200 X-3.189 Y-4.32
G1 F1800 X5.451 Y4.32 E69.9765
G1 X5.521 Y4.39
G0 F7200 X4.886 Y4.32
G1 F1800 X-3.754 Y-4.32 E70.3829
G1 X-3.824 Y-4.39
G0 F7200 X-4.32 Y-4.32
G1 F1800 X4.32 Y4.32 E70.7893
G1 X4.39 Y4.39
G0 F7200 X3.754 Y4.32
G1 F1800 X-4.886 Y-4.32 E71.19569
G1 X-4.956 Y-4.39
G0 F7200 X-5.451 Y-4.32
G1 F1800 X3.189 Y4.32 E71.60209
G1 X3.259 Y4.39
G0 F7200 X2.623 Y4.32
G1 F1800 X-6.017 Y-4.32 E72.00849
G1 X-6.087 Y-4.39
G0 F7200 X-6.583 Y-4.32
G1 F1800 X2.057 Y4.32 E72.41489
G1 X2.127 Y4.39
G0 F7200 X1.491 Y4.32
G1 F1800 X-7.148 Y-4.32 E72.82127
G1 X-7.218 Y-4.39
G0 F7200 X-7.714 Y-4.32
G1 F1800 X0.926 Y4.32 E73.22767
G1 X0.996 Y4.39
G0 F7200 X0.36 Y4.32
G1 F1800 X-8.28 Y-4.32 E73.63407
G1 X-8.35 Y-4.39
G0 F7200 X-8.819 Y-4.293
G1 F1800 X-0.205 Y4.32 E74.03922
G1 X-0.135 Y4.39
G0 F7200 X-0.77 Y4.32
G1 F1800 X-8.819 Y-3.727 E74.41777
G1 X-8.889 Y-3.797
G0 F7200 X-8.819 Y-3.162
G1 F1800 X-1.336 Y4.32 E74.76973
G1 X-1.266 Y4.39
G0 F7200 X-1.902 Y4.32
G1 F1800 X-8.819 Y-2.596 E75.09506
G1 X-8.889 Y-2.666
G0 F7200 X-8.819 Y-2.03
G1 F1800 X-2.467 Y4.32 E75.39379
G1 X-2.397 Y4.39
G0 F7200 X-3.033 Y4.32
G1 F1800 X-8.819 Y-1.465 E75.66592
G1 X-8.889 Y-1.535
G0 F7200 X-8.819 Y-0.899
G1 F1800 X-3.599 Y4.32 E75.91143
G1 X-3.529 Y4.39
G0 F7200 X-4.164 Y4.32
G1 F1800 X-8.819 Y-0.333 E76.13034
G1 X-8.889 Y-0.403
