;FLAVOR:RepRap
;TIME:1283
;Filament used: 1.30945m
;Layer height: 0.2
;Generated with Cura_SteamEngine 0.0.0-master
M104 S200
M109 S200
;Sliced at: Fri 17-08-2018 18:02:58 
 ;Basic settings: Layer height: 0.2 Walls: 1.2 Fill: {fill_density} 
 ;Print time: 00:21:23 
 ;Filament used: [1.31]m [3.905506845703125]g 
 ;Filament cost: [0] 
 ;M190 S60 ;Uncomment to add your own bed temperature line 
 ;M109 S200 ;Uncomment to add your own temperature line 
 G21        ;metric values 
 G90        ;absolute positioning 
 M82        ;set extruder to absolute mode 
 M107       ;start with the fan off 
 G28 X0 Y0  ;move X/Y to min endstops 
 G28 Z0     ;move Z to min endstops 
 G1 Z15.0 F3000 ;move the platform down 15mm 
 G92 E0                  ;zero the extruded length 
 G1 F3000 E3              ;extrude 3mm of feed stock 
 G92 E0                  ;zero the extruded length again 
 G1 F3000 
 ;Put printing message on LCD screen 
 M117 Printing...
;LAYER_COUNT:10
;LAYER:0
M107
G0 F3600 X1.427 Y21.024 Z0.299
;TYPE:SKIRT
G1 F1800 X-19.019 Y21.055 E1.02006
G1 X-19.553 Y21.016 E1.04677
G1 X-19.951 Y20.934 E1.06704
G1 X-20.945 Y20.669 E1.11836
G1 X-21.452 Y20.492 E1.14516
G1 X-21.889 Y20.265 E1.16972
G1 X-22.931 Y19.631 E1.23058
G1 X-23.367 Y19.319 E1.25732
G1 X-23.705 Y18.998 E1.28058
G1 X-24.402 Y18.243 E1.33184
G1 X-24.736 Y17.823 E1.35862
G1 X-24.906 Y17.546 E1.37483
G1 X-25.335 Y16.772 E1.41898
G1 X-25.62 Y16.108 E1.45503
G1 X-25.825 Y15.457 E1.48908
G1 X-25.96 Y14.849 E1.52015
G1 X-26.048 Y14.185 E1.55357
G1 X-26.079 Y13.71 E1.57732
G1 X-26.063 Y-13.942 E2.95688
G1 X-25.987 Y-14.674 E2.9936
G1 X-25.832 Y-15.418 E3.03151
G1 X-25.609 Y-16.121 E3.06831
G1 X-25.255 Y-16.934 E3.11255
G1 X-24.944 Y-17.502 E3.14485
G1 X-24.655 Y-17.933 E3.17074
G1 X-24.214 Y-18.47 E3.20541
G1 X-23.479 Y-19.207 E3.25734
G1 X-22.859 Y-19.705 E3.29701
G1 X-22.287 Y-20.068 E3.33081
G1 X-21.68 Y-20.376 E3.36477
G1 X-20.852 Y-20.703 E3.40919
G1 X-20.218 Y-20.889 E3.44215
G1 X-19.684 Y-20.993 E3.46929
G1 X-18.996 Y-21.059 E3.50377
G1 X19.024 Y-21.055 E5.4006
G1 X19.559 Y-21.015 E5.42736
G1 X19.951 Y-20.934 E5.44733
G1 X20.945 Y-20.669 E5.49866
G1 X21.68 Y-20.383 E5.53801
G1 X22.293 Y-20.064 E5.57248
G1 X22.872 Y-19.688 E5.60692
G1 X23.552 Y-19.147 E5.65028
G1 X24.063 Y-18.65 E5.68584
G1 X24.509 Y-18.121 E5.72036
G1 X24.904 Y-17.55 E5.755
G1 X25.332 Y-16.78 E5.79895
G1 X25.556 Y-16.293 E5.82569
G1 X25.68 Y-15.893 E5.84659
G1 X25.967 Y-14.729 E5.9064
G1 X26.057 Y-14.2 E5.93317
G1 X26.072 Y-13.87 E5.94965
G1 X26.093 Y13.283 E7.30432
G1 X26.084 Y13.538 E7.31705
G1 X26.022 Y14.421 E7.36121
G1 X25.891 Y15.164 E7.39885
G1 X25.639 Y16.04 E7.44433
G1 X25.452 Y16.543 E7.4711
G1 X25.295 Y16.847 E7.48817
G1 X24.793 Y17.715 E7.53819
G1 X24.326 Y18.351 E7.57756
G1 X23.839 Y18.88 E7.61343
G1 X23.332 Y19.335 E7.64742
G1 X22.646 Y19.843 E7.69001
G1 X22.096 Y20.179 E7.72216
G1 X21.599 Y20.424 E7.74981
G1 X21.101 Y20.625 E7.7766
G1 X20.789 Y20.709 E7.79272
G1 X19.512 Y20.993 E7.85799
G1 X18.735 Y21.079 E7.89699
G1 X4.712 Y21.1 E8.5966
G1 X4.623 Y21.099 E8.60104
G1 X1.427 Y21.024 E8.76053
G0 F3600 X1.436 Y20.624
G1 F1800 X-19.019 Y20.655 E9.78104
G1 X-19.523 Y20.616 E9.80626
G1 X-19.848 Y20.547 E9.82283
G1 X-20.842 Y20.282 E9.87415
G1 X-21.319 Y20.114 E9.89939
G1 X-21.681 Y19.924 E9.91978
G1 X-22.723 Y19.29 E9.98063
G1 X-23.133 Y18.994 E10.00586
G1 X-23.411 Y18.727 E10.02509
G1 X-24.108 Y17.972 E10.07636
G1 X-24.421 Y17.574 E10.10162
G1 X-24.556 Y17.352 E10.11458
G1 X-24.985 Y16.578 E10.15873
G1 X-25.238 Y15.988 E10.19076
G1 X-25.443 Y15.337 E10.22481
G1 X-25.563 Y14.796 E10.25246
G1 X-25.651 Y14.132 E10.28587
G1 X-25.679 Y13.71 E10.30697
G1 X-25.663 Y-13.942 E11.68654
G1 X-25.596 Y-14.593 E11.71919
G1 X-25.441 Y-15.337 E11.7571
G1 X-25.242 Y-15.962 E11.78983
G1 X-24.888 Y-16.775 E11.83406
G1 X-24.612 Y-17.279 E11.86273
G1 X-24.323 Y-17.71 E11.88862
G1 X-23.931 Y-18.188 E11.91946
G1 X-23.196 Y-18.925 E11.97139
G1 X-22.645 Y-19.367 E12.00663
G1 X-22.073 Y-19.73 E12.04043
G1 X-21.533 Y-20.004 E12.07064
G1 X-20.705 Y-20.331 E12.11506
G1 X-20.142 Y-20.496 E12.14433
G1 X-19.608 Y-20.6 E12.17147
G1 X-18.996 Y-20.659 E12.20214
G1 X19.024 Y-20.655 E14.09897
G1 X19.528 Y-20.615 E14.12419
G1 X19.848 Y-20.547 E14.14051
G1 X20.842 Y-20.282 E14.19184
G1 X21.495 Y-20.029 E14.22677
G1 X22.108 Y-19.71 E14.26125
G1 X22.623 Y-19.375 E14.2919
G1 X23.303 Y-18.834 E14.33525
G1 X23.758 Y-18.393 E14.36687
G1 X24.204 Y-17.864 E14.40139
G1 X24.554 Y-17.356 E14.43216
G1 X24.982 Y-16.586 E14.47611
G1 X25.192 Y-16.126 E14.50134
G1 X25.292 Y-15.797 E14.5185
G1 X25.579 Y-14.633 E14.57831
G1 X25.661 Y-14.134 E14.60354
G1 X25.672 Y-13.869 E14.61677
G1 X25.693 Y13.284 E15.97144
G1 X25.685 Y13.51 E15.98272
G1 X25.623 Y14.393 E16.02688
G1 X25.506 Y15.054 E16.06037
G1 X25.254 Y15.93 E16.10585
G1 X25.077 Y16.403 E16.13105
G1 X24.949 Y16.647 E16.14479
G1 X24.447 Y17.515 E16.19482
G1 X24.031 Y18.08 E16.22982
G1 X23.544 Y18.609 E16.26569
G1 X23.094 Y19.014 E16.2959
G1 X22.408 Y19.522 E16.33849
G1 X21.919 Y19.82 E16.36705
G1 X21.422 Y20.065 E16.3947
G1 X20.952 Y20.252 E16.41994
G1 X20.702 Y20.319 E16.43285
G1 X19.425 Y20.603 E16.49811
G1 X18.735 Y20.679 E16.53275
G1 X4.712 Y20.7 E17.23236
G1 X4.632 Y20.699 E17.23635
G1 X1.436 Y20.624 E17.39584
G1 F3600 E9.39584
G0 F3600 X4.614 Y18.165
G0 X4.614 Y16.886
G0 X5 Y16.5
;TYPE:WALL-INNER
G1 F3600 E17.39584
G1 F1800 X5 Y11.5 E17.64529
G1 X-5 Y11.5 E18.1442
G1 X-5 Y16.5 E18.39365
G1 X-7.963 Y16.5 E18.54147
G1 X-8.103 Y16.5 E18.54846
G1 X-8.694 Y16.5 E18.57794
G1 X-8.79 Y16.5 E18.58273
G1 X-8.694 Y16.482
G1 X-8.103 Y16.201 E18.59708
G1 X-7.995 Y16.112 E18.60323
G1 X-7.599 Y15.785 E18.62885
G1 X-7.215 Y15.256 E18.66147
G1 X-6.975 Y14.648 E18.69408
G1 X-6.892 Y14 E18.72667
G1 X-6.975 Y13.352 E18.75926
G1 X-7.215 Y12.744 E18.79187
G1 X-7.599 Y12.215 E18.82449
G1 X-8.103 Y11.799 E18.85709
G1 X-8.694 Y11.518 E18.88974
G1 X-9.337 Y11.398 E18.92237
G1 X-9.989 Y11.438 E18.95496
G1 X-10.611 Y11.64 E18.98759
G1 X-11.163 Y11.992 E19.02025
G1 X-11.609 Y12.468 E19.05279
G1 X-11.925 Y13.039 E19.08535
G1 X-12.087 Y13.674 E19.11805
G1 X-12.087 Y14.326 E19.15058
G1 X-11.925 Y14.961 E19.18327
G1 X-11.609 Y15.532 E19.21583
G1 X-11.163 Y16.008 E19.24837
G1 X-10.986 Y16.121 E19.25885
G1 X-10.611 Y16.36 E19.28103
G1 X-10.18 Y16.5 E19.30364
G1 X-10.611 Y16.5 E19.30718
G1 X-11.056 Y16.5 E19.32246
G1 X-18.468 Y16.5 E19.69224
G1 X-18.898 Y16.473 E19.71374
G1 X-19.271 Y16.398 E19.73272
G1 X-19.644 Y16.271 E19.75238
G1 X-20.006 Y16.092 E19.77253
G1 X-20.326 Y15.879 E19.7917
G1 X-20.62 Y15.62 E19.81125
G1 X-20.879 Y15.326 E19.8308
G1 X-21.092 Y15.006 E19.84998
G1 X-21.271 Y14.644 E19.87012
G1 X-21.398 Y14.271 E19.88978
G1 X-21.473 Y13.898 E19.90876
G1 X-21.5 Y13.468 E19.93026
G1 X-21.5 Y-13.468 E21.2741
G1 X-21.473 Y-13.898 E21.2956
G1 X-21.398 Y-14.271 E21.31458
G1 X-21.271 Y-14.644 E21.33424
G1 X-21.092 Y-15.006 E21.35438
G1 X-20.879 Y-15.326 E21.37356
G1 X-20.62 Y-15.62 E21.39311
G1 X-20.326 Y-15.879 E21.41266
G1 X-20.006 Y-16.092 E21.43184
G1 X-19.644 Y-16.271 E21.45198
G1 X-19.271 Y-16.398 E21.47164
G1 X-18.898 Y-16.473 E21.49062
G1 X-18.468 Y-16.5 E21.51212
G1 X18.468 Y-16.5 E23.35486
G1 X18.898 Y-16.473 E23.37636
G1 X19.271 Y-16.398 E23.39534
G1 X19.644 Y-16.271 E23.415
G1 X20.006 Y-16.092 E23.43514
G1 X20.326 Y-15.879 E23.45432
G1 X20.62 Y-15.62 E23.47387
G1 X20.879 Y-15.326 E23.49342
G1 X21.092 Y-15.006 E23.5126
G1 X21.271 Y-14.644 E23.53274
G1 X21.398 Y-14.271 E23.5524
G1 X21.473 Y-13.898 E23.57138
G1 X21.5 Y-13.468 E23.59288
G1 X21.5 Y13.468 E24.93672
G1 X21.473 Y13.898 E24.95822
G1 X21.398 Y14.271 E24.9772
G1 X21.271 Y14.644 E24.99686
G1 X21.092 Y15.006 E25.017
G1 X20.879 Y15.326 E25.03618
G1 X20.62 Y15.62 E25.05573
G1 X20.326 Y15.879 E25.07528
G1 X20.006 Y16.092 E25.09445
G1 X19.644 Y16.271 E25.1146
G1 X19.271 Y16.398 E25.13426
G1 X18.898 Y16.473 E25.15324
G1 X18.468 Y16.5 E25.17474
G1 X11.037 Y16.5 E25.54547
G1 X10.897 Y16.5 E25.55246
G1 X10.306 Y16.5 E25.58194
G1 X10.21 Y16.5 E25.58673
G1 X10.306 Y16.482
G1 X10.897 Y16.201 E25.60108
G1 X11.005 Y16.112 E25.60723
G1 X11.401 Y15.785 E25.63285
G1 X11.785 Y15.256 E25.66547
G1 X12.025 Y14.648 E25.69808
G1 X12.108 Y14 E25.73067
G1 X12.025 Y13.352 E25.76326
G1 X11.785 Y12.744 E25.79587
G1 X11.401 Y12.215 E25.82849
G1 X10.897 Y11.799 E25.86109
G1 X10.306 Y11.518 E25.89374
G1 X9.663 Y11.398 E25.92637
G1 X9.011 Y11.438 E25.95896
G1 X8.389 Y11.64 E25.99159
G1 X7.837 Y11.992 E26.02425
G1 X7.391 Y12.468 E26.05679
G1 X7.075 Y13.039 E26.08935
G1 X6.913 Y13.674 E26.12205
G1 X6.913 Y14.326 E26.15458
G1 X7.075 Y14.961 E26.18727
G1 X7.391 Y15.532 E26.21983
G1 X7.837 Y16.008 E26.25237
G1 X8.014 Y16.121 E26.26285
G1 X8.389 Y16.36 E26.28503
G1 X8.82 Y16.5 E26.30764
G1 X8.389 Y16.5 E26.31118
G1 X7.944 Y16.5 E26.32646
G1 X5 Y16.5 E26.47333
G0 F3600 X9.64 Y16.239
G0 X10.193 Y16.136
G0 X13.3 Y14.5
G1 F1800 X19.5 Y14.5 E26.78265
G1 X19.5 Y10.7 E26.97224
G1 X13.3 Y10.7 E27.28156
G1 X13.3 Y14.5 E27.47114
G0 F3600 X13.3 Y-10.7
G1 F1800 X19.5 Y-10.7 E27.78046
G1 X19.5 Y-14.5 E27.97004
G1 X13.3 Y-14.5 E28.27936
G1 X13.3 Y-10.7 E28.46894
G0 F3600 X-13.3 Y-10.7
G1 F1800 X-13.3 Y-14.5 E28.65852
G1 X-19.5 Y-14.5 E28.96784
G1 X-19.5 Y-10.7 E29.15743
G1 X-13.3 Y-10.7 E29.46675
G0 F3600 X-13.3 Y10.7
G1 F1800 X-19.5 Y10.7 E29.77607
G1 X-19.5 Y14.5 E29.96565
G1 X-13.3 Y14.5 E30.27497
G1 X-13.3 Y10.7 E30.46455
G0 F3600 X-13.7 Y11.1
G1 F1800 X-19.1 Y11.1 E30.73396
G1 X-19.1 Y14.1 E30.88363
G1 X-13.7 Y14.1 E31.15304
G1 X-13.7 Y11.1 E31.30271
G0 F3600 X-13.63 Y11.03
G0 X-11.363 Y12.647
G0 X-11.283 Y12.705
G1 F1800 X-11.55 Y13.188 E31.33024
G1 X-11.687 Y13.724 E31.35784
G1 X-11.687 Y14.276 E31.38538
G1 X-11.55 Y14.812 E31.41298
G1 X-11.283 Y15.295 E31.44051
G1 X-10.906 Y15.698 E31.46805
G1 X-10.439 Y15.995 E31.49566
G1 X-9.914 Y16.166 E31.5232
G1 X-9.362 Y16.2 E31.5508
G1 X-8.819 Y16.098 E31.57836
G1 X-8.319 Y15.861 E31.60597
G1 X-7.893 Y15.509 E31.63354
G1 X-7.568 Y15.062 E31.66111
G1 X-7.365 Y14.548 E31.68868
G1 X-7.295 Y14 E31.71624
G1 X-7.365 Y13.452 E31.7438
G1 X-7.568 Y12.938 E31.77137
G1 X-7.893 Y12.491 E31.79895
G1 X-8.319 Y12.139 E31.82652
G1 X-8.819 Y11.902 E31.85412
G1 X-9.362 Y11.8 E31.88169
G1 X-9.914 Y11.834 E31.90928
G1 X-10.439 Y12.005 E31.93682
G1 X-10.906 Y12.302 E31.96444
G1 X-11.283 Y12.705 E31.99197
G0 F3600 X-11.363 Y12.647
G0 X-10.931 Y12.272
G0 X-10.456 Y11.969
G0 X-9.921 Y11.795
G0 X-4.67 Y11.83
G0 X-4.6 Y11.9
G1 F1800 X-4.6 Y16.9 E32.24142
G1 X-18.477 Y16.9 E32.93374
G1 X-18.949 Y16.87 E32.95734
G1 X-19.38 Y16.784 E32.97927
G1 X-19.797 Y16.642 E33.00124
G1 X-20.206 Y16.44 E33.024
G1 X-20.567 Y16.199 E33.04566
G1 X-20.903 Y15.903 E33.068
G1 X-21.199 Y15.567 E33.09034
G1 X-21.44 Y15.206 E33.11199
G1 X-21.642 Y14.797 E33.13475
G1 X-21.784 Y14.38 E33.15673
G1 X-21.87 Y13.949 E33.17865
G1 X-21.9 Y13.477 E33.20225
G1 X-21.9 Y-13.477 E34.54699
G1 X-21.87 Y-13.949 E34.57059
G1 X-21.784 Y-14.38 E34.59251
G1 X-21.642 Y-14.797 E34.61449
G1 X-21.44 Y-15.206 E34.63725
G1 X-21.199 Y-15.567 E34.6589
G1 X-20.903 Y-15.903 E34.68124
G1 X-20.567 Y-16.199 E34.70358
G1 X-20.206 Y-16.44 E34.72524
G1 X-19.797 Y-16.642 E34.748
G1 X-19.38 Y-16.784 E34.76997
G1 X-18.949 Y-16.87 E34.7919
G1 X-18.477 Y-16.9 E34.8155
G1 X18.477 Y-16.9 E36.65914
G1 X18.949 Y-16.87 E36.68273
G1 X19.38 Y-16.784 E36.70466
G1 X19.797 Y-16.642 E36.72664
G1 X20.206 Y-16.44 E36.7494
G1 X20.567 Y-16.199 E36.77105
G1 X20.903 Y-15.903 E36.79339
G1 X21.199 Y-15.567 E36.81573
G1 X21.44 Y-15.206 E36.83739
G1 X21.642 Y-14.797 E36.86014
G1 X21.784 Y-14.38 E36.88212
G1 X21.87 Y-13.949 E36.90405
G1 X21.9 Y-13.477 E36.92764
G1 X21.9 Y13.477 E38.27238
G1 X21.87 Y13.949 E38.29598
G1 X21.784 Y14.38 E38.31791
G1 X21.642 Y14.797 E38.33988
G1 X21.44 Y15.206 E38.36264
G1 X21.199 Y15.567 E38.3843
G1 X20.903 Y15.903 E38.40664
G1 X20.567 Y16.199 E38.42898
G1 X20.206 Y16.44 E38.45063
G1 X19.797 Y16.642 E38.47339
G1 X19.38 Y16.784 E38.49537
G1 X18.949 Y16.87 E38.51729
G1 X18.477 Y16.9 E38.54089
G1 X4.6 Y16.9 E39.23322
G1 X4.6 Y11.9 E39.48267
G1 X-4.6 Y11.9 E39.94166
G0 F3600 X-4.67 Y11.83
G0 X4.628 Y11.872
G0 X7.214 Y13.712
G0 X7.313 Y13.724
G1 F1800 X7.313 Y14.276 E39.9692
G1 X7.45 Y14.812 E39.9968
G1 X7.717 Y15.295 E40.02433
G1 X8.094 Y15.698 E40.05186
G1 X8.561 Y15.995 E40.07947
G1 X9.086 Y16.166 E40.10702
G1 X9.638 Y16.2 E40.13461
G1 X10.181 Y16.098 E40.16218
G1 X10.681 Y15.861 E40.18978
G1 X11.107 Y15.509 E40.21735
G1 X11.432 Y15.062 E40.24493
G1 X11.635 Y14.548 E40.2725
G1 X11.705 Y14 E40.30006
G1 X11.635 Y13.452 E40.32762
G1 X11.432 Y12.938 E40.35519
G1 X11.107 Y12.491 E40.38276
G1 X10.681 Y12.139 E40.41033
G1 X10.181 Y11.902 E40.43794
G1 X9.638 Y11.8 E40.4655
G1 X9.086 Y11.834 E40.49309
G1 X8.561 Y12.005 E40.52064
G1 X8.094 Y12.302 E40.54825
G1 X7.717 Y12.705 E40.57578
G1 X7.45 Y13.188 E40.60332
G1 X7.313 Y13.724 E40.63092
G0 F3600 X7.214 Y13.712
G0 X7.413 Y13.174
G0 X7.685 Y12.682
G0 X8.069 Y12.272
G0 X8.544 Y11.969
G0 X9.079 Y11.795
G0 X9.64 Y11.761
G0 X10.193 Y11.864
G0 X10.702 Y12.106
G0 X13.63 Y14.17
G0 X13.7 Y14.1
G1 F1800 X19.1 Y14.1 E40.90033
G1 X19.1 Y11.1 E41.05
G1 X13.7 Y11.1 E41.3194
G1 X13.7 Y14.1 E41.46907
G0 F3600 X13.63 Y14.17
G0 X13.63 Y-11.03
G0 X13.7 Y-11.1
G1 F1800 X19.1 Y-11.1 E41.73848
G1 X19.1 Y-14.1 E41.88815
G1 X13.7 Y-14.1 E42.15756
G1 X13.7 Y-11.1 E42.30723
G0 F3600 X13.63 Y-11.03
G0 X-13.63 Y-11.03
G0 X-13.7 Y-11.1
G1 F1800 X-13.7 Y-14.1 E42.4569
G1 X-19.1 Y-14.1 E42.72631
G1 X-19.1 Y-11.1 E42.87598
G1 X-13.7 Y-11.1 E43.14539
G0 F3600 X-14.1 Y-11.5
;TYPE:WALL-OUTER
G1 F1800 X-14.1 Y-13.7 E43.25514
G1 X-18.7 Y-13.7 E43.48464
G1 X-18.7 Y-11.5 E43.5944
G1 X-14.1 Y-11.5 E43.82389
G0 F3600 X-14.1 Y-11.7
G0 X-13.6 Y-11.7
G0 X-13.672 Y-14.128
G0 X-18.474 Y-16.801
G0 X-18.487 Y-17.3
G1 F1800 X18.487 Y-17.3 E45.66853
G1 X19 Y-17.267 E45.69418
G1 X19.486 Y-17.17 E45.7189
G1 X19.952 Y-17.012 E45.74345
G1 X20.401 Y-16.79 E45.76844
G1 X20.812 Y-16.515 E45.79311
G1 X21.186 Y-16.186 E45.81796
G1 X21.515 Y-15.812 E45.84282
G1 X21.79 Y-15.401 E45.86749
G1 X22.012 Y-14.952 E45.89248
G1 X22.17 Y-14.486 E45.91703
G1 X22.267 Y-14 E45.94175
G1 X22.3 Y-13.487 E45.9674
G1 X22.3 Y13.487 E47.31313
G1 X22.267 Y14 E47.33878
G1 X22.17 Y14.486 E47.36351
G1 X22.012 Y14.952 E47.38806
G1 X21.79 Y15.401 E47.41304
G1 X21.515 Y15.812 E47.43772
G1 X21.186 Y16.186 E47.46257
G1 X20.812 Y16.515 E47.48742
G1 X20.401 Y16.79 E47.51209
G1 X19.952 Y17.012 E47.53708
G1 X19.486 Y17.17 E47.56163
G1 X19 Y17.267 E47.58635
G1 X18.487 Y17.3 E47.612
G1 X4.2 Y17.3 E48.32478
G1 X4.2 Y12.3 E48.57423
G1 X-4.2 Y12.3 E48.99331
G1 X-4.2 Y17.3 E49.24276
G1 X-18.487 Y17.3 E49.95554
G1 X-19 Y17.267 E49.98119
G1 X-19.486 Y17.17 E50.00591
G1 X-19.952 Y17.012 E50.03046
G1 X-20.401 Y16.79 E50.05545
G1 X-20.812 Y16.515 E50.08012
G1 X-21.186 Y16.186 E50.10497
G1 X-21.515 Y15.812 E50.12982
G1 X-21.79 Y15.401 E50.1545
G1 X-22.012 Y14.952 E50.17948
G1 X-22.17 Y14.486 E50.20403
G1 X-22.267 Y14 E50.22876
G1 X-22.3 Y13.487 E50.2544
G1 X-22.3 Y-13.487 E51.60014
G1 X-22.267 Y-14 E51.62579
G1 X-22.17 Y-14.486 E51.65051
G1 X-22.012 Y-14.952 E51.67506
G1 X-21.79 Y-15.401 E51.70005
G1 X-21.515 Y-15.812 E51.72472
G1 X-21.186 Y-16.186 E51.74958
G1 X-20.812 Y-16.515 E51.77443
G1 X-20.401 Y-16.79 E51.7991
G1 X-19.952 Y-17.012 E51.82409
G1 X-19.486 Y-17.17 E51.84864
G1 X-19 Y-17.267 E51.87336
G1 X-18.487 Y-17.3 E51.89901
G0 F3600 X-18.287 Y-17.3
G0 X-18.287 Y-16.8
G0 X-13.672 Y-14.128
G0 X-13.672 Y-11.072
G0 X-18.7 Y11
G0 X-18.7 Y11.5
G1 F1800 X-18.7 Y13.7 E52.00877
G1 X-14.1 Y13.7 E52.23826
G1 X-14.1 Y11.5 E52.34802
G1 X-18.7 Y11.5 E52.57751
G0 F3600 X-18.7 Y11.7
G0 X-19.2 Y11.7
G0 X-19.128 Y11.072
G0 X-13.672 Y11.072
G0 X-11.612 Y13.096
G0 X-11.175 Y13.337
G1 F1800 X-11.287 Y13.774 E52.60002
G1 X-11.287 Y14.226 E52.62257
G1 X-11.175 Y14.663 E52.64508
G1 X-10.957 Y15.058 E52.66759
G1 X-10.649 Y15.388 E52.69011
G1 X-10.267 Y15.63 E52.71267
G1 X-9.838 Y15.77 E52.73518
G1 X-9.387 Y15.798 E52.75772
G1 X-8.944 Y15.714 E52.78022
G1 X-8.535 Y15.521 E52.80278
G1 X-8.187 Y15.233 E52.82532
G1 X-7.921 Y14.868 E52.84785
G1 X-7.755 Y14.448 E52.87038
