;FLAVOR:RepRap
;TIME:6582
;Filament used: 5.51928m
;Layer height: 0.15
;Generated with Cura_SteamEngine 0.0.0-master
M104 S200
M109 S200
;Sliced at: Fri 04-09-2020 14:32:36 
 ;Basic settings: Layer height: 0.15 Walls: 1.2 Fill: {fill_density} 
 ;Print time: 01:49:42 
 ;Filament used: [5.52]m [16.4615219140625]g 
 ;Filament cost: [0] 
 ;M190 S60 ;Uncomment to add your own bed temperature line 
 ;M109 S200 ;Uncomment to add your own temperature line 
 G21        ;metric values 
 G90        ;absolute positioning 
 M82        ;set extruder to absolute mode 
 M107       ;start with the fan off 
 G28 X0 Y0  ;move X/Y to min endstops 
 G28 Z0     ;move Z to min endstops 
 G1 Z15.0 F3000 ;move the platform down 15mm 
 G92 E0                  ;zero the extruded length 
 G1 F3000 E3              ;extrude 3mm of feed stock 
 G92 E0                  ;zero the extruded length again 
 G1 F3000 
 ;Put printing message on LCD screen 
 M117 Printing...
;LAYER_COUNT:153
;LAYER:0
M107
G0 F3600 X25.479 Y27.664 Z0.299
;TYPE:SKIRT
G1 F1800 X-25.519 Y27.658 E2.5443
G1 X-26.308 Y27.618 E2.58371
G1 X-27.088 Y27.498 E2.62309
G1 X-27.853 Y27.3 E2.66251
G1 X-28.381 Y27.113 E2.69046
G1 X-28.979 Y26.877 E2.72253
G1 X-29.698 Y26.551 E2.76192
G1 X-30.38 Y26.153 E2.80131
G1 X-31.019 Y25.688 E2.84074
G1 X-31.607 Y25.162 E2.8801
G1 X-32.139 Y24.578 E2.91951
G1 X-32.609 Y23.943 E2.95892
G1 X-33.013 Y23.265 E2.9983
G1 X-33.445 Y22.292 E3.05141
G1 X-33.633 Y21.776 E3.07881
G1 X-33.865 Y21.021 E3.11822
G1 X-34.02 Y20.247 E3.1576
G1 X-34.104 Y19.107 E3.21463
G1 X-34.11 Y-19.07 E5.11929
G1 X-34.07 Y-19.858 E5.15865
G1 X-33.951 Y-20.639 E5.19806
G1 X-33.658 Y-21.689 E5.25245
G1 X-33.461 Y-22.242 E5.28174
G1 X-33.158 Y-22.971 E5.32112
G1 X-32.784 Y-23.666 E5.3605
G1 X-32.341 Y-24.32 E5.39991
G1 X-31.834 Y-24.926 E5.43933
G1 X-31.269 Y-25.477 E5.4787
G1 X-30.651 Y-25.968 E5.51808
G1 X-29.986 Y-26.395 E5.55751
G1 X-29.281 Y-26.752 E5.59693
G1 X-28.878 Y-26.917 E5.61866
G1 X-28.245 Y-27.157 E5.65243
G1 X-27.494 Y-27.4 E5.69181
G1 X-26.721 Y-27.565 E5.73125
G1 X-25.936 Y-27.651 E5.77064
G1 X-25.479 Y-27.664 E5.79345
G1 X25.519 Y-27.658 E8.33775
G1 X26.308 Y-27.618 E8.37717
G1 X27.088 Y-27.498 E8.41654
G1 X27.853 Y-27.3 E8.45596
G1 X28.375 Y-27.116 E8.48358
G1 X28.972 Y-26.881 E8.51559
G1 X29.691 Y-26.555 E8.55497
G1 X30.374 Y-26.158 E8.59438
G1 X31.013 Y-25.694 E8.63378
G1 X31.601 Y-25.167 E8.67318
G1 X32.134 Y-24.584 E8.71259
G1 X32.605 Y-23.95 E8.75199
G1 X33.009 Y-23.272 E8.79136
G1 X33.44 Y-22.302 E8.84432
G1 X33.628 Y-21.788 E8.87162
G1 X33.862 Y-21.034 E8.91101
G1 X34.018 Y-20.26 E8.9504
G1 X34.103 Y-19.11 E9.00793
G1 X34.11 Y19.07 E10.91274
G1 X34.07 Y19.858 E10.95211
G1 X33.951 Y20.639 E10.99152
G1 X33.66 Y21.681 E11.04549
G1 X33.464 Y22.233 E11.07472
G1 X33.163 Y22.963 E11.11411
G1 X32.789 Y23.658 E11.15349
G1 X32.347 Y24.313 E11.19291
G1 X31.841 Y24.919 E11.2323
G1 X31.276 Y25.471 E11.27171
G1 X30.658 Y25.963 E11.31112
G1 X29.994 Y26.39 E11.3505
G1 X29.29 Y26.747 E11.38988
G1 X28.886 Y26.914 E11.41169
G1 X28.252 Y27.155 E11.44553
G1 X27.5 Y27.398 E11.48496
G1 X26.728 Y27.564 E11.52435
G1 X25.943 Y27.65 E11.56375
G1 X25.479 Y27.664 E11.58691
G0 F3600 X25.479 Y27.264
G1 F1800 X-25.519 Y27.258 E14.13121
G1 X-26.287 Y27.218 E14.16958
G1 X-27.047 Y27.098 E14.20797
G1 X-27.79 Y26.901 E14.24631
G1 X-28.235 Y26.741 E14.26991
G1 X-28.833 Y26.505 E14.30198
G1 X-29.532 Y26.186 E14.34031
G1 X-30.195 Y25.796 E14.37869
G1 X-30.814 Y25.339 E14.41708
G1 X-31.382 Y24.821 E14.45543
G1 X-31.893 Y24.246 E14.49381
G1 X-32.342 Y23.621 E14.5322
G1 X-32.724 Y22.954 E14.57055
G1 X-33.069 Y22.155 E14.61397
G1 X-33.257 Y21.639 E14.64137
G1 X-33.482 Y20.904 E14.67971
G1 X-33.63 Y20.149 E14.7181
G1 X-33.704 Y19.107 E14.77022
G1 X-33.71 Y-19.07 E16.67487
G1 X-33.67 Y-19.838 E16.71324
G1 X-33.551 Y-20.598 E16.75162
G1 X-33.281 Y-21.554 E16.80118
G1 X-33.084 Y-22.107 E16.83047
G1 X-32.788 Y-22.817 E16.86885
G1 X-32.421 Y-23.493 E16.90722
G1 X-31.985 Y-24.127 E16.94561
G1 X-31.486 Y-24.712 E16.98397
G1 X-30.929 Y-25.242 E17.02233
G1 X-30.32 Y-25.712 E17.06071
G1 X-29.665 Y-26.116 E17.0991
G1 X-28.736 Y-26.543 E17.15011
G1 X-28.103 Y-26.783 E17.18389
G1 X-27.371 Y-27.018 E17.22224
G1 X-26.618 Y-27.176 E17.26063
G1 X-25.479 Y-27.264 E17.31762
G1 X25.519 Y-27.258 E19.86192
G1 X26.287 Y-27.218 E19.90029
G1 X27.047 Y-27.098 E19.93867
G1 X27.79 Y-26.901 E19.97702
G1 X28.228 Y-26.744 E20.00024
G1 X28.825 Y-26.509 E20.03225
G1 X29.526 Y-26.19 E20.07067
G1 X30.189 Y-25.801 E20.10902
G1 X30.808 Y-25.344 E20.14741
G1 X31.377 Y-24.826 E20.1858
G1 X31.888 Y-24.252 E20.22414
G1 X32.338 Y-23.628 E20.26252
G1 X32.72 Y-22.96 E20.30091
G1 X33.065 Y-22.165 E20.34415
G1 X33.253 Y-21.651 E20.37145
G1 X33.479 Y-20.916 E20.40982
G1 X33.628 Y-20.161 E20.44821
G1 X33.703 Y-19.11 E20.50078
G1 X33.71 Y19.07 E22.40559
G1 X33.67 Y19.838 E22.44395
G1 X33.551 Y20.598 E22.48233
G1 X33.283 Y21.547 E22.53153
G1 X33.087 Y22.099 E22.56075
G1 X32.793 Y22.81 E22.59914
G1 X32.426 Y23.486 E22.63751
G1 X31.991 Y24.12 E22.67587
G1 X31.492 Y24.706 E22.71427
G1 X30.936 Y25.236 E22.75259
G1 X30.327 Y25.707 E22.791
G1 X29.673 Y26.111 E22.82936
G1 X28.743 Y26.54 E22.88045
G1 X28.109 Y26.781 E22.91429
G1 X27.377 Y27.017 E22.95266
G1 X26.624 Y27.175 E22.99105
G1 X25.479 Y27.264 E23.04834
G0 F3600 X25.479 Y26.864
G1 F1800 X-25.519 Y26.858 E25.59264
G1 X-26.266 Y26.818 E25.62997
G1 X-27.004 Y26.698 E25.66727
G1 X-27.726 Y26.501 E25.70461
G1 X-28.088 Y26.369 E25.72383
G1 X-28.686 Y26.133 E25.7559
G1 X-29.366 Y25.822 E25.79321
G1 X-30.009 Y25.44 E25.83052
G1 X-30.607 Y24.991 E25.86783
G1 X-31.155 Y24.481 E25.90518
G1 X-31.645 Y23.916 E25.94249
G1 X-32.071 Y23.301 E25.97981
G1 X-32.43 Y22.645 E26.01712
G1 X-32.693 Y22.018 E26.05104
G1 X-32.881 Y21.502 E26.07844
G1 X-33.099 Y20.787 E26.11573
G1 X-33.24 Y20.052 E26.15307
G1 X-33.304 Y19.107 E26.20033
G1 X-33.31 Y-19.07 E28.10499
G1 X-33.27 Y-19.817 E28.14231
G1 X-33.151 Y-20.555 E28.1796
G1 X-32.904 Y-21.42 E28.22448
G1 X-32.707 Y-21.973 E28.25377
G1 X-32.419 Y-22.663 E28.29107
G1 X-32.058 Y-23.319 E28.32843
G1 X-31.63 Y-23.932 E28.36573
G1 X-31.139 Y-24.496 E28.40303
G1 X-30.59 Y-25.005 E28.44038
G1 X-29.99 Y-25.452 E28.47771
G1 X-29.346 Y-25.832 E28.51502
G1 X-28.595 Y-26.169 E28.55608
G1 X-27.962 Y-26.409 E28.58986
G1 X-27.249 Y-26.637 E28.62721
G1 X-26.516 Y-26.787 E28.66453
G1 X-25.479 Y-26.864 E28.71641
G1 X25.519 Y-26.858 E31.26071
G1 X26.266 Y-26.818 E31.29803
G1 X27.004 Y-26.698 E31.33534
G1 X27.726 Y-26.501 E31.37267
G1 X28.082 Y-26.372 E31.39156
G1 X28.679 Y-26.137 E31.42357
G1 X29.359 Y-25.826 E31.46088
G1 X30.003 Y-25.444 E31.49823
G1 X30.602 Y-24.996 E31.53555
G1 X31.15 Y-24.486 E31.5729
G1 X31.64 Y-23.921 E31.61021
G1 X32.067 Y-23.307 E31.64752
G1 X32.426 Y-22.651 E31.68483
G1 X32.689 Y-22.028 E31.71857
G1 X32.877 Y-21.514 E31.74588
G1 X33.096 Y-20.798 E31.78323
G1 X33.238 Y-20.064 E31.82053
G1 X33.303 Y-19.11 E31.86823
G1 X33.31 Y19.07 E33.77304
G1 X33.27 Y19.817 E33.81036
G1 X33.151 Y20.555 E33.84766
G1 X32.907 Y21.413 E33.89216
G1 X32.711 Y21.965 E33.92139
G1 X32.423 Y22.656 E33.95873
G1 X32.063 Y23.312 E33.99607
G1 X31.636 Y23.926 E34.03338
G1 X31.145 Y24.49 E34.07068
G1 X30.597 Y24.999 E34.108
G1 X29.998 Y25.447 E34.14532
G1 X29.354 Y25.828 E34.18265
G1 X28.601 Y26.166 E34.22383
G1 X27.967 Y26.407 E34.25766
G1 X27.255 Y26.635 E34.29496
G1 X26.522 Y26.786 E34.3323
G1 X25.479 Y26.864 E34.38448
G0 F3600 X25.479 Y26.464
G1 F1800 X-25.519 Y26.458 E36.92878
G1 X-26.244 Y26.418 E36.96501
G1 X-26.96 Y26.298 E37.00123
G1 X-27.941 Y25.997 E37.05242
G1 X-28.539 Y25.761 E37.08449
G1 X-29.199 Y25.458 E37.12073
G1 X-29.821 Y25.084 E37.15694
G1 X-30.399 Y24.643 E37.19321
G1 X-30.925 Y24.142 E37.22945
G1 X-31.393 Y23.587 E37.26567
G1 X-31.796 Y22.983 E37.30189
G1 X-32.131 Y22.338 E37.33815
G1 X-32.317 Y21.881 E37.36277
G1 X-32.505 Y21.365 E37.39017
G1 X-32.716 Y20.67 E37.4264
G1 X-32.849 Y19.956 E37.46264
G1 X-32.904 Y19.107 E37.50508
G1 X-32.91 Y-19.07 E39.40974
G1 X-32.87 Y-19.795 E39.44597
G1 X-32.751 Y-20.512 E39.48223
G1 X-32.527 Y-21.286 E39.52243
G1 X-32.33 Y-21.839 E39.55172
G1 X-32.049 Y-22.509 E39.58796
G1 X-31.696 Y-23.143 E39.62417
G1 X-31.276 Y-23.736 E39.66042
G1 X-30.793 Y-24.278 E39.69664
G1 X-30.253 Y-24.764 E39.73288
G1 X-29.663 Y-25.188 E39.76913
G1 X-29.03 Y-25.544 E39.80536
G1 X-28.453 Y-25.795 E39.83676
G1 X-27.82 Y-26.035 E39.87053
G1 X-27.128 Y-26.255 E39.90676
G1 X-26.415 Y-26.397 E39.94303
G1 X-25.479 Y-26.464 E39.98984
G1 X25.519 Y-26.458 E42.53415
G1 X26.244 Y-26.418 E42.57037
G1 X26.96 Y-26.298 E42.60659
G1 X27.935 Y-25.999 E42.65747
G1 X28.532 Y-25.764 E42.68948
G1 X29.193 Y-25.461 E42.72576
G1 X29.816 Y-25.088 E42.76198
G1 X30.394 Y-24.648 E42.79822
G1 X30.92 Y-24.148 E42.83443
G1 X31.388 Y-23.592 E42.87069
G1 X31.792 Y-22.989 E42.9069
G1 X32.128 Y-22.344 E42.94318
G1 X32.313 Y-21.89 E42.96764
G1 X32.501 Y-21.376 E42.99495
G1 X32.713 Y-20.681 E43.0312
G1 X32.847 Y-19.967 E43.06744
G1 X32.903 Y-19.11 E43.11029
G1 X32.91 Y19.07 E45.0151
G1 X32.87 Y19.795 E45.05132
G1 X32.751 Y20.512 E45.08758
G1 X32.53 Y21.279 E45.1274
G1 X32.334 Y21.831 E45.15663
G1 X32.053 Y22.501 E45.19288
G1 X31.701 Y23.137 E45.22914
G1 X31.281 Y23.729 E45.26535
G1 X30.798 Y24.272 E45.30161
G1 X30.259 Y24.759 E45.33785
G1 X29.67 Y25.183 E45.37406
G1 X29.037 Y25.54 E45.41032
G1 X28.459 Y25.792 E45.44177
G1 X27.825 Y26.033 E45.47561
G1 X27.133 Y26.254 E45.51185
G1 X26.421 Y26.397 E45.54809
G1 X25.479 Y26.464 E45.5952
G0 F3600 X25.479 Y26.064
G1 F1800 X-25.519 Y26.058 E48.1395
G1 X-26.222 Y26.018 E48.17463
G1 X-26.915 Y25.898 E48.20972
G1 X-27.794 Y25.625 E48.25564
G1 X-28.392 Y25.389 E48.28771
G1 X-29.031 Y25.094 E48.32283
G1 X-29.633 Y24.728 E48.35798
G1 X-30.189 Y24.297 E48.39307
G1 X-30.692 Y23.805 E48.42818
G1 X-31.137 Y23.259 E48.46332
G1 X-31.517 Y22.666 E48.49846
G1 X-31.941 Y21.744 E48.54908
G1 X-32.129 Y21.228 E48.57648
G1 X-32.332 Y20.554 E48.6116
G1 X-32.458 Y19.862 E48.64669
G1 X-32.504 Y19.107 E48.68443
G1 X-32.51 Y-19.07 E50.58909
G1 X-32.47 Y-19.773 E50.62422
G1 X-32.351 Y-20.467 E50.65935
G1 X-32.15 Y-21.152 E50.69496
G1 X-31.953 Y-21.705 E50.72425
G1 X-31.68 Y-22.353 E50.75933
G1 X-31.335 Y-22.967 E50.79447
G1 X-30.922 Y-23.537 E50.82959
G1 X-30.447 Y-24.057 E50.86472
G1 X-29.917 Y-24.52 E50.89983
G1 X-29.337 Y-24.92 E50.93498
G1 X-28.716 Y-25.251 E50.97009
G1 X-28.311 Y-25.421 E50.99201
G1 X-27.678 Y-25.661 E51.02578
G1 X-27.007 Y-25.873 E51.06089
G1 X-26.316 Y-26.007 E51.096
G1 X-25.479 Y-26.064 E51.13786
G1 X25.519 Y-26.058 E53.68216
G1 X26.222 Y-26.018 E53.71729
G1 X26.915 Y-25.898 E53.75238
G1 X27.789 Y-25.627 E53.79803
G1 X28.386 Y-25.392 E53.83004
G1 X29.025 Y-25.098 E53.86513
G1 X29.627 Y-24.732 E53.90028
G1 X30.184 Y-24.301 E53.93542
G1 X30.688 Y-23.81 E53.97052
G1 X31.133 Y-23.264 E54.00566
G1 X31.513 Y-22.672 E54.04076
G1 X31.938 Y-21.753 E54.09127
G1 X32.126 Y-21.239 E54.11858
G1 X32.33 Y-20.565 E54.15371
G1 X32.456 Y-19.872 E54.18885
G1 X32.503 Y-19.11 E54.22694
G1 X32.51 Y19.07 E56.13175
G1 X32.47 Y19.773 E56.16688
G1 X32.351 Y20.467 E56.20201
G1 X32.153 Y21.146 E56.23729
G1 X31.957 Y21.698 E56.26652
G1 X31.684 Y22.347 E56.30164
G1 X31.339 Y22.96 E56.33674
G1 X30.927 Y23.531 E56.37186
G1 X30.453 Y24.052 E56.407
G1 X29.923 Y24.515 E56.44212
G1 X29.344 Y24.915 E56.47722
G1 X28.723 Y25.247 E56.51236
G1 X28.317 Y25.418 E56.53433
G1 X27.683 Y25.659 E56.56817
G1 X27.012 Y25.872 E56.6033
G1 X26.321 Y26.007 E56.63842
G1 X25.479 Y26.064 E56.68053
G0 F3600 X25.479 Y25.664
G1 F1800 X-25.519 Y25.658 E59.22483
G1 X-26.198 Y25.618 E59.25876
G1 X-26.869 Y25.499 E59.29276
G1 X-27.647 Y25.253 E59.33347
G1 X-28.245 Y25.017 E59.36554
G1 X-28.863 Y24.73 E59.39954
G1 X-29.442 Y24.373 E59.43347
G1 X-29.976 Y23.951 E59.46743
G1 X-30.457 Y23.468 E59.50144
G1 X-30.878 Y22.933 E59.5354
G1 X-31.233 Y22.352 E59.56937
G1 X-31.566 Y21.608 E59.61004
G1 X-31.754 Y21.092 E59.63743
G1 X-31.949 Y20.439 E59.67143
G1 X-32.066 Y19.768 E59.70542
G1 X-32.104 Y19.107 E59.73845
G1 X-32.11 Y-19.07 E61.64311
G1 X-32.07 Y-19.75 E61.67709
G1 X-31.951 Y-20.42 E61.71104
G1 X-31.774 Y-21.017 E61.74211
G1 X-31.577 Y-21.57 E61.77139
G1 X-31.311 Y-22.197 E61.80537
G1 X-30.974 Y-22.789 E61.83936
G1 X-30.569 Y-23.336 E61.87331
G1 X-30.103 Y-23.833 E61.9073
G1 X-29.583 Y-24.272 E61.94126
G1 X-29.014 Y-24.646 E61.97523
G1 X-28.169 Y-25.047 E62.02189
G1 X-27.536 Y-25.287 E62.05566
G1 X-26.886 Y-25.491 E62.08965
G1 X-26.217 Y-25.617 E62.12362
G1 X-25.479 Y-25.664 E62.16051
G1 X25.519 Y-25.658 E64.70481
G1 X26.198 Y-25.618 E64.73874
G1 X26.869 Y-25.499 E64.77274
G1 X27.642 Y-25.255 E64.81318
G1 X28.239 Y-25.02 E64.84519
G1 X28.857 Y-24.734 E64.87917
G1 X29.437 Y-24.377 E64.91314
G1 X29.972 Y-23.955 E64.94714
G1 X30.453 Y-23.473 E64.98111
G1 X30.874 Y-22.938 E65.01508
G1 X31.23 Y-22.358 E65.04903
G1 X31.562 Y-21.615 E65.08963
G1 X31.75 Y-21.101 E65.11693
G1 X31.946 Y-20.449 E65.1509
G1 X32.064 Y-19.779 E65.18484
G1 X32.103 Y-19.11 E65.21828
G1 X32.11 Y19.07 E67.12308
G1 X32.07 Y19.75 E67.15707
G1 X31.951 Y20.42 E67.19102
G1 X31.776 Y21.012 E67.22182
G1 X31.58 Y21.564 E67.25104
G1 X31.315 Y22.191 E67.285
G1 X30.978 Y22.783 E67.31898
G1 X30.574 Y23.331 E67.35295
G1 X30.109 Y23.828 E67.38691
G1 X29.588 Y24.267 E67.4209
G1 X29.02 Y24.642 E67.45485
G1 X28.175 Y25.045 E67.50156
G1 X27.541 Y25.286 E67.5354
G1 X26.891 Y25.49 E67.56939
G1 X26.222 Y25.616 E67.60335
G1 X25.479 Y25.664 E67.6405
G0 F3600 X25.479 Y25.264
G1 F1800 X-25.519 Y25.258 E70.1848
G1 X-26.174 Y25.218 E70.21753
G1 X-26.82 Y25.099 E70.25031
G1 X-27.5 Y24.881 E70.28593
G1 X-28.098 Y24.645 E70.31801
G1 X-28.694 Y24.367 E70.35082
G1 X-29.251 Y24.019 E70.38358
G1 X-29.761 Y23.606 E70.41632
G1 X-30.218 Y23.134 E70.4491
G1 X-30.614 Y22.609 E70.48191
G1 X-30.944 Y22.041 E70.51468
G1 X-31.19 Y21.471 E70.54565
G1 X-31.378 Y20.955 E70.57305
G1 X-31.565 Y20.325 E70.60584
G1 X-31.674 Y19.677 E70.63862
G1 X-31.704 Y19.107 E70.6671
G1 X-31.71 Y-19.07 E72.57176
G1 X-31.67 Y-19.726 E72.60455
G1 X-31.551 Y-20.372 E72.63732
G1 X-31.397 Y-20.883 E72.66394
G1 X-31.2 Y-21.436 E72.69323
G1 X-30.942 Y-22.04 E72.726
G1 X-30.613 Y-22.609 E72.75879
G1 X-30.217 Y-23.133 E72.79156
G1 X-29.761 Y-23.606 E72.82434
G1 X-29.25 Y-24.019 E72.85712
G1 X-28.693 Y-24.368 E72.88991
G1 X-28.027 Y-24.673 E72.92645
G1 X-27.394 Y-24.913 E72.96023
G1 X-26.767 Y-25.108 E72.99299
G1 X-26.121 Y-25.226 E73.02575
G1 X-25.479 Y-25.264 E73.05784
G1 X25.519 Y-25.258 E75.60214
G1 X26.174 Y-25.218 E75.63488
G1 X26.82 Y-25.099 E75.66765
G1 X27.496 Y-24.883 E75.70305
G1 X28.093 Y-24.648 E75.73506
G1 X28.688 Y-24.37 E75.76783
G1 X29.246 Y-24.023 E75.80061
G1 X29.757 Y-23.61 E75.83339
G1 X30.214 Y-23.138 E75.86617
G1 X30.611 Y-22.614 E75.89896
G1 X30.941 Y-22.046 E75.93174
G1 X31.186 Y-21.478 E75.9626
G1 X31.374 Y-20.964 E75.9899
G1 X31.562 Y-20.334 E76.0227
G1 X31.672 Y-19.687 E76.05545
G1 X31.703 Y-19.11 E76.08427
G1 X31.71 Y19.07 E77.98908
G1 X31.67 Y19.726 E78.02187
G1 X31.551 Y20.372 E78.05464
G1 X31.399 Y20.878 E78.081
G1 X31.203 Y21.43 E78.11022
G1 X30.946 Y22.034 E78.14297
G1 X30.617 Y22.603 E78.17576
G1 X30.222 Y23.128 E78.20854
G1 X29.766 Y23.601 E78.24132
G1 X29.256 Y24.015 E78.27409
G1 X28.699 Y24.364 E78.30689
G1 X28.033 Y24.671 E78.34347
G1 X27.399 Y24.912 E78.37731
G1 X26.772 Y25.107 E78.41007
G1 X26.125 Y25.225 E78.44288
G1 X25.479 Y25.264 E78.47517
G0 F3600 X25.479 Y24.864
G1 F1800 X-25.519 Y24.858 E81.01947
G1 X-26.149 Y24.818 E81.05096
G1 X-26.77 Y24.699 E81.08251
G1 X-27.353 Y24.509 E81.1131
G1 X-27.951 Y24.273 E81.14518
G1 X-28.524 Y24.004 E81.17676
G1 X-29.057 Y23.665 E81.20827
G1 X-29.544 Y23.262 E81.23981
G1 X-29.976 Y22.8 E81.27136
G1 X-30.346 Y22.288 E81.30288
G1 X-30.649 Y21.733 E81.33443
G1 X-30.814 Y21.334 E81.35597
G1 X-31.002 Y20.818 E81.38336
G1 X-31.18 Y20.211 E81.41492
G1 X-31.281 Y19.587 E81.44646
G1 X-31.304 Y19.107 E81.47043
G1 X-31.31 Y-19.07 E83.37509
G1 X-31.27 Y-19.701 E83.40664
G1 X-31.151 Y-20.322 E83.43818
G1 X-31.02 Y-20.749 E83.46047
G1 X-30.823 Y-21.302 E83.48975
G1 X-30.574 Y-21.883 E83.52129
G1 X-30.253 Y-22.428 E83.55285
